X:114
T:Mary Kate Cassidy's* (h)
B:NFID.247a ("untitled hornpipe")
114mary_kc
S:PT
N:I have a suspicion that the 6th note in measures 2
and 5 should be a C instead of a D (C fits the harmony
better). I put C in measure 5 for the MIDI file - see if
it makes any difference to you.
L:1/8
M:C
R:hornpipe
Q:300
K:D
AG|FDFA dAFA|GEFD A,DEG|FAdf afdf|(3efe (3dcB AGFE|
FDFA dAFA|GEFD A,CEG|FAdA BGEC|D2 (3DDD D2:|
dd|cdef gece|dfaf bafa|a<gBg gfAc|(3efe (3dcB AGFE|
F<DFA dAFA|GEFD A,DEG|FAdA BGEC|D2 (3DDD D2:|

%%%

